X:1
T:Flop Eared Mule -
C:Paul Andry Simplified Version (Single Notes)
M:4/4
L:1/4
N:Play AA BB AA BB A
%%staves{RH1 RH2}
V:RH1 clef=treble
V:RH2 clef=treble
K:D
V:RH1
|:A|"D""^PART A"f f/2f/2 d d/2d/2|A A/2A/2 F F/2F/2
|"A"E G F E|"D"D F A A
|f f/2f/2 d d/2d/2|A A/2A/2 F F/2F/2
|"A"E G F E|1"D"D D/2D/2 D/2D/2:|2"D"D D/2D/2 D D||
V:RH2
|:A|"D"f f/2f/2 d d/2d/2|A/2B/2 A/2G/2 F/2E/2 D
|"A"E G F (3E/2F/2E/2|"D"D F A A
|f f/2f/2 d d/2d/2|A/2B/2 A/2G/2 F/2E/2 D
|"A"E G F (3E/2F/2E/2|1"D"D D/2D/2 D/2D/2:|2"D"D D/2D/2 D D||
%%staves {RH1}
V:RH1
|:"A""^PART B"e e/2e/2 c c/2c/2|e e/2e/2 c c/2c/2
|"E"B d c B|"A"A c e e/2e/2
|e e/2e/2 c c/2c/2|e e/2e/2 c c/2c/2
|"E"B d c B|1"A"A A/2A/2 A A:|2"A"A A/2A/2 A||
